X:29
T:Knocknagoshel (Polka), The
I:titlefont Times-Roman 24
I:partsfont Times-Roman 20
R:polka
M:2/4
L:1/8
O:Trad. (27.10.2015/NS)
K:Gmaj
|: "G" G>G ED| GB dB/d/| "C" eB dB| "D" A/B/A/G/ ED|
"G" G>G ED| "G" GB dB/d/| "C" ed "D"BA| "G" G2 G2:|
|: "G" d2d^c/d/| "Em" ed BG| "C" Gc cd| "D" ed Bc|
"G" d2d^c/d/| "Em" ed BG| "C" AB/c/ "D"BA| "G" G2 G2:|
%%vskip
%%begintext
The Knocknagoshel
|: G>G ED | GB dB/d/ | eB dB | A/B/A/G/ ED |
G>G ED | GB dB/d/ | ed BA | G2 G2 :|
|: d2 d^c/d/ | ed BG | Gc cd | ed Bc |
d2 d^c/d/ | ed BG | AB/c/ BA | G2 G2 :|
%%endtext
%%vskip
K:Edor
P:Toureendarby
|: "Em"BE FE | BE FE %| "D"D>E FA |FE FA |
%"Em"BE FE | BE FE | "D"D>E FA | "Em"FE E2 :|
%|: "Em"ef/e/ dB | ef/e/ "G"dB | "D"AF dF | AB/c/ "Hm"d2 |
%"C"ef/e/ dB | ef/e/ dB | "D"AF dF | "Em"FE E2 :|
%%vskip
%%begintext
|:Em    | %      | D     | %          |
| Em    | %      | D     | Em       :|
|:Em    |      G | D     |        Hm |
| C       | %      | D     | Em       :|
%%endtext
%%vskip
P:The Maids Of Ardagh
K:Dmaj
|: "D"FG/A/ BA | de f2 %| "G"fe/f/ gc | "A"ed BA |
%"D"FG/A/ BA | de f2 | "G"fe/f/ "A"gc | "D"ed d2 :|
%|: "A"ef/e/ ce | fe "D"a2 | "A"ef/e/ ce | "D"fe c/B/A |
%"A"ef/e/ ce | fe "D"a2 | "D"ef/e/ "E"dB | "A"BA A2 :|
%%vskip
%%begintext
|:D       | %      | G        | A        |
| D       | %      | G  A   | D       :|
|:A       |      D | A        | D        |
| A       | %      | D   E   | A       :|
%%endtext
%%vskip

